<?xml version="1.0" encoding="UTF-8"?>
<map version="1.10" tiledversion="1.12.2" orientation="orthogonal" renderorder="right-down" width="2" height="20" tilewidth="16" tileheight="16" infinite="1" nextlayerid="3" nextobjectid="1">
 <tileset firstgid="1" source="./concretejunglelwetdreamtomato.tsx"/>
 <layer id="2" name="bg" width="2" height="20">
  <data encoding="csv">
   <chunk x="-16" y="-16" width="16" height="16">
0,0,0,0,0,0,0,0,0,0,0,0,0,0,0,0,
0,0,0,0,0,0,0,0,0,0,0,0,0,0,0,0,
0,0,0,0,0,0,0,0,0,0,0,0,0,0,0,0,
0,0,0,0,0,0,0,0,0,0,0,0,0,0,0,0,
0,0,0,0,0,0,0,0,0,0,0,0,0,0,0,0,
0,0,0,0,0,0,0,0,0,0,0,0,0,0,0,0,
0,0,0,0,0,0,0,0,0,0,0,0,0,0,0,0,
0,0,0,0,0,0,0,0,0,0,0,0,0,0,0,0,
0,0,0,0,0,0,0,0,0,0,0,0,0,0,0,0,
0,0,0,0,0,0,0,0,0,0,0,0,0,0,0,0,
0,0,0,0,0,0,0,0,0,0,0,0,0,0,0,0,
0,0,0,0,0,0,0,0,0,0,0,0,0,0,0,0,
0,0,0,0,0,0,0,0,0,0,0,0,0,0,0,0,
0,0,0,0,0,0,0,0,0,0,0,0,0,0,0,0,
0,0,0,0,0,0,0,0,0,0,0,0,0,0,0,43,
0,0,0,0,0,0,0,0,0,0,0,0,0,0,0,60
</chunk>
   <chunk x="0" y="-16" width="16" height="16">
0,0,0,0,0,0,0,0,0,0,0,0,0,0,0,0,
0,0,0,0,0,0,0,0,0,0,0,0,0,0,0,0,
0,0,0,0,0,0,0,0,0,0,0,0,0,0,0,0,
0,0,0,0,0,0,0,0,0,0,0,0,0,0,0,0,
0,0,0,0,0,0,0,0,0,0,0,0,0,0,0,0,
0,0,0,0,0,0,0,0,0,0,0,0,0,0,0,0,
0,0,0,0,0,0,0,0,0,0,0,0,0,0,0,0,
0,0,0,0,0,0,0,0,0,0,0,0,0,0,0,0,
0,0,0,0,0,0,0,0,0,0,0,0,0,0,0,0,
0,0,0,0,0,0,0,0,0,0,0,0,0,0,0,0,
0,0,0,0,0,0,0,0,0,0,0,0,0,0,0,0,
0,0,0,0,0,0,0,0,0,0,0,0,0,0,0,0,
0,0,0,0,0,0,0,0,0,0,0,0,0,0,0,0,
0,0,0,0,0,0,0,0,0,0,0,0,0,0,0,0,
44,45,0,0,43,44,43,44,45,0,0,0,0,0,0,0,
61,62,0,0,60,61,60,61,62,0,0,0,0,0,0,0
</chunk>
  </data>
 </layer>
 <layer id="1" name="Tilelaag 1" width="2" height="20">
  <properties>
   <property name="Solid" type="bool" value="true"/>
  </properties>
  <data encoding="csv">
   <chunk x="16" y="-16" width="16" height="16">
0,0,0,0,0,0,0,0,0,0,0,0,0,0,0,0,
0,0,0,0,0,0,0,0,0,0,0,0,0,0,0,0,
0,0,0,0,0,0,0,0,0,0,0,0,0,0,0,0,
0,0,0,0,0,0,0,0,0,0,0,0,0,0,0,0,
0,0,0,0,0,0,0,0,0,0,0,0,0,0,0,0,
0,0,0,0,0,0,0,0,0,0,0,0,0,0,0,0,
0,0,0,0,0,0,0,0,0,0,0,0,0,0,0,0,
0,0,0,0,0,0,0,0,0,0,0,0,0,0,0,0,
0,0,0,0,0,0,0,0,0,0,0,0,0,0,0,0,
0,0,0,0,0,0,0,0,0,0,0,0,0,0,0,0,
0,0,0,0,0,0,0,0,0,0,0,0,0,0,0,0,
0,0,0,0,0,0,0,0,0,0,0,0,0,0,0,0,
0,0,0,0,0,0,0,0,0,0,0,0,0,0,0,0,
0,0,0,0,0,0,0,0,0,0,0,0,0,0,0,0,
0,0,0,0,0,0,0,0,0,0,0,0,0,0,0,0,
77,78,78,78,78,78,78,78,79,0,0,0,100,100,100,0
</chunk>
   <chunk x="32" y="-16" width="16" height="16">
0,0,0,0,0,0,0,0,0,0,0,0,0,0,0,0,
0,0,0,0,0,0,0,0,0,0,0,0,0,0,0,0,
0,0,0,0,0,0,0,0,0,0,0,0,0,0,0,0,
0,0,0,0,0,0,0,0,0,0,0,0,0,0,0,0,
0,0,0,0,0,0,0,0,0,0,0,0,0,0,0,0,
0,0,0,0,0,0,0,0,0,0,0,0,0,0,0,0,
0,0,0,0,0,0,0,0,0,0,0,0,0,0,0,0,
0,0,0,0,0,0,0,0,0,0,0,0,0,0,0,0,
0,0,0,0,0,0,0,0,0,0,0,0,0,0,0,0,
0,0,0,0,0,0,0,0,0,0,0,0,0,0,0,0,
0,0,0,0,0,0,0,0,0,0,0,0,0,0,0,0,
0,0,0,0,0,0,0,0,0,0,0,0,0,0,0,0,
0,0,0,0,0,0,0,0,0,0,0,0,0,0,0,0,
0,0,0,0,0,0,0,0,0,0,0,0,0,0,0,0,
0,0,0,0,0,0,0,0,0,0,0,0,0,0,0,0,
0,0,0,0,0,0,0,0,0,0,0,95,95,95,95,95
</chunk>
   <chunk x="48" y="-16" width="16" height="16">
0,0,0,0,0,0,0,0,0,0,0,0,0,0,0,0,
0,0,0,0,0,0,0,0,0,0,0,0,0,0,0,0,
0,0,0,0,0,0,0,0,0,0,0,0,0,0,0,0,
0,0,0,0,0,0,0,0,0,0,0,0,0,0,0,0,
0,0,0,0,0,0,0,0,0,0,0,0,0,0,0,0,
0,0,0,0,0,0,0,0,0,0,0,0,0,0,0,0,
0,0,0,0,0,0,0,0,0,0,0,0,0,0,0,0,
0,0,0,0,0,0,0,0,0,0,0,0,0,0,0,0,
0,0,0,0,0,0,0,0,0,0,0,0,0,0,0,0,
0,0,0,0,0,0,0,0,0,0,0,0,0,95,95,95,
0,0,0,0,0,0,0,0,0,0,0,0,0,0,0,0,
0,0,0,0,0,0,0,0,0,0,0,0,0,0,0,0,
0,0,0,95,95,95,95,95,0,0,0,0,0,0,0,0,
0,0,0,0,0,0,0,0,0,0,0,0,0,0,0,0,
0,0,0,0,0,0,0,0,0,0,0,0,0,0,0,0,
0,0,0,0,0,0,0,0,0,0,0,0,0,0,0,0
</chunk>
   <chunk x="64" y="-16" width="16" height="16">
0,0,0,0,0,0,0,0,0,0,0,0,0,0,0,0,
0,0,0,0,0,0,0,0,0,0,0,0,0,0,0,0,
0,0,0,0,0,0,0,0,0,0,0,0,0,0,0,0,
0,0,0,0,0,0,0,0,0,0,0,0,0,0,0,0,
0,0,0,0,0,0,0,0,0,0,0,0,0,0,0,0,
0,0,0,0,0,0,0,0,0,0,0,0,0,0,0,0,
0,0,0,0,0,0,0,0,0,0,0,0,0,0,0,0,
0,0,0,0,0,0,0,0,0,0,0,0,0,0,0,0,
0,0,0,0,0,0,0,0,0,0,0,0,0,0,0,0,
95,95,95,95,95,95,95,0,0,0,0,0,0,0,95,0,
0,0,0,0,0,0,0,0,0,0,0,0,0,0,0,0,
0,0,0,0,0,0,0,0,0,0,0,0,0,0,0,0,
0,0,0,0,0,0,0,0,0,0,0,0,0,0,0,0,
0,0,0,0,0,0,0,0,0,0,0,0,0,0,0,0,
0,0,0,0,0,0,0,0,0,0,0,0,0,0,0,0,
0,0,0,0,0,0,0,0,0,0,0,0,0,0,0,0
</chunk>
   <chunk x="80" y="-16" width="16" height="16">
0,0,0,0,0,0,0,0,0,0,0,0,0,0,0,0,
0,0,0,0,0,0,0,0,0,0,0,0,0,0,0,0,
0,0,0,0,0,0,0,0,0,0,0,0,0,0,0,0,
0,0,0,0,0,0,0,0,0,0,0,0,0,0,0,0,
0,0,0,0,0,0,0,0,0,0,0,0,0,0,0,0,
0,0,0,0,0,0,0,0,0,0,0,0,0,0,0,0,
0,0,0,0,0,0,0,0,0,0,0,0,0,0,0,0,
0,95,0,0,0,0,0,0,0,0,0,0,0,0,0,0,
0,0,0,0,0,0,0,0,0,0,0,0,0,0,0,0,
0,0,0,0,0,0,0,0,0,0,0,0,0,0,0,0,
0,0,0,0,0,0,0,0,0,0,0,0,0,0,0,0,
0,0,0,0,0,0,0,0,0,0,0,0,0,0,0,0,
0,0,0,0,0,0,0,0,0,0,0,0,0,0,0,0,
0,0,0,0,0,0,0,0,0,0,0,0,0,0,0,0,
0,0,0,0,0,0,0,0,0,0,0,0,0,0,0,0,
0,0,0,0,0,0,0,0,0,0,0,0,0,0,0,0
</chunk>
   <chunk x="0" y="0" width="16" height="16">
77,78,78,78,78,78,78,78,78,78,79,0,0,0,0,0,
95,95,95,95,95,95,95,95,95,95,95,0,0,0,0,0,
95,95,95,95,95,95,95,95,95,95,95,0,0,0,0,0,
95,95,95,95,95,95,95,95,95,95,95,0,0,0,0,0,
95,95,95,95,95,95,95,95,95,95,95,0,0,0,0,0,
95,95,95,95,95,95,95,95,95,95,95,0,0,0,0,0,
95,95,95,95,95,95,95,95,95,95,95,0,0,0,0,0,
95,95,95,95,95,95,95,95,95,95,95,0,0,0,0,0,
95,95,95,95,95,95,95,95,95,95,95,0,0,0,0,0,
95,95,95,95,95,95,95,95,95,95,95,0,0,0,0,0,
95,95,95,95,95,95,95,95,95,95,95,0,0,0,0,0,
95,95,95,95,95,95,95,95,95,95,95,0,0,0,0,0,
95,95,95,95,95,95,95,95,95,95,95,0,0,0,0,0,
95,95,95,95,95,95,95,95,95,95,95,0,0,0,0,0,
95,95,95,95,95,95,95,95,95,95,95,0,0,0,0,0,
95,95,95,95,95,95,95,95,95,95,95,0,0,0,0,0
</chunk>
   <chunk x="16" y="0" width="16" height="16">
95,95,95,95,95,95,95,95,95,0,0,0,0,0,0,0,
95,95,95,95,95,95,95,95,95,0,0,0,0,0,0,0,
95,95,95,95,95,95,95,95,95,0,0,0,0,0,0,0,
95,95,95,95,95,95,95,95,95,0,0,0,0,0,0,0,
95,95,95,95,95,95,95,95,95,0,0,0,0,0,0,0,
95,95,95,95,95,95,95,95,95,0,0,0,0,0,0,0,
95,95,95,95,95,95,95,95,95,0,0,0,0,0,0,0,
95,95,95,95,95,95,95,95,95,0,0,0,0,0,0,0,
95,95,95,95,95,95,95,95,95,0,0,0,0,0,0,0,
95,95,95,95,95,95,95,95,95,0,0,0,0,0,0,0,
95,95,95,95,95,95,95,95,95,0,0,0,0,0,0,0,
95,95,95,95,95,95,95,95,95,0,0,0,0,0,0,0,
95,95,95,95,95,95,95,95,95,0,0,0,0,0,0,0,
95,95,95,95,95,95,95,95,95,0,0,0,0,0,0,0,
95,95,95,95,95,95,95,95,95,0,0,0,0,0,0,0,
95,95,95,95,95,95,95,95,95,0,0,0,0,0,0,0
</chunk>
   <chunk x="32" y="0" width="16" height="16">
0,0,0,0,0,0,0,0,0,0,0,0,0,0,0,0,
0,0,0,0,0,0,0,0,0,0,0,0,0,0,0,0,
0,0,0,0,0,0,0,0,0,0,0,0,0,0,0,0,
77,78,78,78,78,78,78,78,79,0,0,0,0,0,0,0,
95,95,95,95,95,95,95,95,95,0,0,0,0,0,0,0,
95,95,95,95,95,95,95,95,95,0,0,0,0,0,0,0,
95,95,95,95,95,95,95,95,95,0,0,0,0,0,0,0,
95,95,95,95,95,95,95,95,95,0,0,0,0,0,0,0,
95,95,95,95,95,95,95,95,95,0,0,0,0,0,0,0,
95,95,95,95,95,95,95,95,95,0,0,0,0,0,0,0,
95,95,95,95,95,95,95,95,95,0,0,0,0,0,0,0,
95,95,95,95,95,95,95,95,95,0,0,0,0,0,0,0,
95,95,95,95,95,95,95,95,95,0,0,0,0,0,0,0,
95,95,95,95,95,95,95,95,95,0,0,0,0,0,0,0,
95,95,95,95,95,95,95,95,95,0,0,0,0,0,0,0,
95,95,95,95,95,95,95,95,95,0,0,0,0,0,0,0
</chunk>
   <chunk x="0" y="16" width="16" height="16">
95,95,95,95,95,95,95,95,95,95,95,0,0,0,0,0,
95,95,95,95,95,95,95,95,95,95,95,0,0,0,0,0,
95,95,95,95,95,95,95,95,95,95,95,0,0,0,0,0,
95,95,95,95,95,95,95,95,95,95,95,0,0,0,0,0,
95,95,95,95,95,95,95,95,95,95,95,0,0,0,0,0,
0,0,0,0,0,0,0,0,0,0,0,0,0,0,0,0,
0,0,0,0,0,0,0,0,0,0,0,0,0,0,0,0,
0,0,0,0,0,0,0,0,0,0,0,0,0,0,0,0,
0,0,0,0,0,0,0,0,0,0,0,0,0,0,0,0,
0,0,0,0,0,0,0,0,0,0,0,0,0,0,0,0,
0,0,0,0,0,0,0,0,0,0,0,0,0,0,0,0,
0,0,0,0,0,0,0,0,0,0,0,0,0,0,0,0,
0,0,0,0,0,0,0,0,0,0,0,0,0,0,0,0,
0,0,0,0,0,0,0,0,0,0,0,0,0,0,0,0,
0,0,0,0,0,0,0,0,0,0,0,0,0,0,0,0,
0,0,0,0,0,0,0,0,0,0,0,0,0,0,0,0
</chunk>
   <chunk x="16" y="16" width="16" height="16">
95,95,95,95,95,95,95,95,95,0,0,0,0,0,0,0,
95,95,95,95,95,95,95,95,95,0,0,0,0,0,0,0,
95,95,95,95,95,95,95,95,95,0,0,0,0,0,0,0,
95,95,95,95,95,95,95,95,95,0,0,0,0,0,0,0,
95,95,95,95,95,95,95,95,95,0,0,0,0,0,0,0,
0,0,0,0,0,0,0,0,0,0,0,0,0,0,0,0,
0,0,0,0,0,0,0,0,0,0,0,0,0,0,0,0,
0,0,0,0,0,0,0,0,0,0,0,0,0,0,0,0,
0,0,0,0,0,0,0,0,0,0,0,0,0,0,0,0,
0,0,0,0,0,0,0,0,0,0,0,0,0,0,0,0,
0,0,0,0,0,0,0,0,0,0,0,0,0,0,0,0,
0,0,0,0,0,0,0,0,0,0,0,0,0,0,0,0,
0,0,0,0,0,0,0,0,0,0,0,0,0,0,0,0,
0,0,0,0,0,0,0,0,0,0,0,0,0,0,0,0,
0,0,0,0,0,0,0,0,0,0,0,0,0,0,0,0,
0,0,0,0,0,0,0,0,0,0,0,0,0,0,0,0
</chunk>
   <chunk x="32" y="16" width="16" height="16">
95,95,95,95,95,95,95,95,95,0,0,0,0,0,0,0,
95,95,95,95,95,95,95,95,95,0,0,0,0,0,0,0,
95,95,95,95,95,95,95,95,95,0,0,0,0,0,0,0,
95,95,95,95,95,95,95,95,95,0,0,0,0,0,0,0,
95,95,95,95,95,95,95,95,95,0,0,0,0,0,0,0,
95,95,95,95,95,95,95,95,95,0,0,0,0,0,0,0,
95,95,95,95,95,95,95,95,95,0,0,0,0,0,0,0,
95,95,95,95,95,95,95,95,95,0,0,0,0,0,0,0,
95,95,95,95,95,95,95,95,95,0,0,0,0,0,0,0,
0,0,0,0,0,0,0,0,0,0,0,0,0,0,0,0,
0,0,0,0,0,0,0,0,0,0,0,0,0,0,0,0,
0,0,0,0,0,0,0,0,0,0,0,0,0,0,0,0,
0,0,0,0,0,0,0,0,0,0,0,0,0,0,0,0,
0,0,0,0,0,0,0,0,0,0,0,0,0,0,0,0,
0,0,0,0,0,0,0,0,0,0,0,0,0,0,0,0,
0,0,0,0,0,0,0,0,0,0,0,0,0,0,0,0
</chunk>
  </data>
 </layer>
</map>
